X:1
T:Title
%%score { ( 1 3 5 ) | ( 2 4 6 ) }
L:1/8
M:4/4
K:A
V:1 treble nm="Grand Piano"
V:3 treble 
V:5 treble 
V:2 bass 
V:4 bass 
V:6 bass 
V:1
 z4 z2[Q:1/4=100] [CE]2 | [CA]3 [CG] [CA]>[CB] [CA]>[CF] | [DG]6 E2 | B3 ^A B2 EE |[M:3/4] c6 | %5
[M:1/4] [CA]2 |[M:4/4] A3 G A>B [^DFA]>[B,DF] | B6 z2 | [B,EG]3 [B,EG] .[A,EF]2 .[A,CF]2 | %9
 [G,E]6 z2 | c6 z2 | e4 G4 | d6 z2 | c->[Ec-] [Ec-]>[Ec-] [Ec]2 z2 | e6 E2 | B2 c2 z4 | %16
 c4- c>c c<B[Q:1/4=98][Q:1/4=97][Q:1/4=95][Q:1/4=94][Q:1/4=92][Q:1/4=91][Q:1/4=89][Q:1/4=88][Q:1/4=86][Q:1/4=84][Q:1/4=83][Q:1/4=81][Q:1/4=80][Q:1/4=78][Q:1/4=77] | %17
[M:3/4] [CEA]6 |] %18
V:2
 z4 z2 [A,,A,]2 | [A,,E,]3 [A,,E,] [A,,E,]>[A,,E,] [A,,E,]>[A,,A,] | [B,,E,]6 [E,G,D]2 | %3
 [E,G,D]3 [E,=G,C] [E,^G,D]2 .[E,G,D]2 |[M:3/4] [A,E]6 |[M:1/4] [A,,A,]2 | %6
[M:4/4] [F,CF]3 [F,CF] [F,CF]>[F,CF] B,,>A, | G,2 F,2 E,2 A,,2 | B,,3 B,, z ^D z D | E,6 z2 | %10
 z4 z2 A,2 | B,,>B,, B,,>B,, [E,DE]2 [E,D]2 | [E,B,]>[E,B,] [E,B,]>[E,B,] [E,B,]2 [E,G,E]2 | %13
 [A,,A,]>[A,,A,] [A,,A,]>[A,,A,] [A,,A,]2 z2 | [A,CE]>[A,C] [A,C]>[A,C] [A,C]2 [C,A,]2 | %15
 [E,G,E]>[E,G,][K:treble] [A,=G]>A,[K:bass] [D,A,]4 | [E,A,E]4- [E,A,E]>[E,CE] [E,E]<[E,DE] | %17
[M:3/4] A,,6 |] %18
V:3
 x8 | x8 | x8 | x8 |[M:3/4] x6 |[M:1/4] x2 |[M:4/4] x8 | [B,E]2 [^DA]2 [EG]2 [EAc]2 | x8 | x8 | %10
 E>E E>E z z/ c/ (3[C-E][CA]c | [DG]>[DG] [DG]>[DG] z2 E2 | z z/ G/ G>G (3z cd (3eB=c | E2 z2 z4 | %14
 z z/ E/ E>E z z/ e/ (3AGA | z z/ E/ z z/ =G/ [Fd]4 | x8 |[M:3/4] x6 |] %18
V:4
 x8 | x8 | x8 | x8 |[M:3/4] x6 |[M:1/4] x2 |[M:4/4] x8 | x8 | z4 B,,2 B,,2 | x8 | %10
 [A,,A,]>[A,,A,] [A,,A,]>[A,,A,] [A,,A,]2 (3:2:2z2 E | x8 | x8 | x8 | x8 | %15
 x2[K:treble] x2[K:bass] x4 | x8 |[M:3/4] x6 |] %18
V:5
 x8 | x8 | x8 | x8 |[M:3/4] x6 |[M:1/4] x2 |[M:4/4] x8 | x8 | x8 | x8 | z4 E2 z2 | x8 | %12
 G2 z2 G2 z2 | x8 | z4 E2 z2 | x8 | x8 |[M:3/4] x6 |] %18
V:6
 x8 | x8 | x8 | x8 |[M:3/4] x6 |[M:1/4] x2 |[M:4/4] x8 | x8 | x8 | x8 | z4 z2 A,,2 | x8 | x8 | x8 | %14
 x8 | x2[K:treble] x2[K:bass] x4 | x8 |[M:3/4] x6 |] %18

